X:1
T:Title
%%score { 1 | 2 }
L:1/8
Q:1/4=100
M:6/8
K:G
V:1 treble nm="Grand Piano"
V:2 bass 
V:1
 [DB]2 [CA] [B,G]2 [Ec] | [DB]3 .G3 | G2 G [Ec]2 [Ec] | [DB]6 | [DB]2 [CA] [B,G]2 [Ec] | %5
w: E.~H.~Bookmyer * * *|||||
 [DB]3 .[DG]3 | [^CB]2 [CA] [CE]2 [CB] | A6 | c2 B c2 A | [DB]3 .[DG]3 | [Fd]2 [Fc] [DB]2 [Dc] | %11
w: ||||||
 [DB]6 | [Gd]2 [Gd] [^Ge]2 [Ed] | [Ed]3 .[Ec]3 | [^CB]2 [CA] [CE]2 [CB] | [CA]6 | %16
w: |||||
 [DB]2 [CA] [B,G]2 [Ec] | [DB]3 .G3 | G2 G [EA]2 [E_B] | [^DB]6 | [Ed]2 [Ed] [^Ge]2 [GB] | d3 .c3 | %22
w: ||||||
 [GB]2 [Gd] [DB]2 [CA] | [B,G]6 |] %24
w: ||
V:2
 [G,,G,]2 [G,,G,] [G,,G,]2 [G,,G,] | [G,,G,]3 .[B,,G,B,]3 | [E,B,E]2 [E,B,E] [C,C]2 [C,G,] | %3
 [G,,G,]6 | [G,,G,]2 [G,,G,] [G,,G,]2 [G,,G,] | [G,,G,]3 .[B,,G,]3 | %6
 [A,,G,]2 [A,,E,] [A,,A,]2 [A,,G,] | [D,F,C]6 | [D,F,D]2 [D,F,D] [D,F,D]2 [D,F,D] | %9
 [G,,G,]3 .[B,,G,]3 | [D,A,]2 [D,A,] [D,G,]2 [D,F,] | [G,,G,]6 | [G,B,]2 [=F,B,] [E,B,]2 [E,^G,] | %13
 [A,,A,]3 .[A,,A,]3 | [A,,G,]2 [A,,E,] [A,,A,]2 [A,,G,] | [D,F,]6 | %16
 [G,,G,]2 [G,,G,] [G,,G,]2 [G,,G,] | [G,,G,]3 .[B,,G,B,]3 | [E,B,E]2 [E,B,E] [C,E,]2 [C,E,] | %19
 [B,,F,]6 | [E,^G,]2 [E,G,] [E,B,]2 [E,E] | [^G,B,E]3 .[A,E]3 | [D,D]2 [D,B,] [D,G,]2 [D,F,] | %23
 [G,,G,]6 |] %24

